src/images/home/command.svg

<svg fill="none" height="100" viewBox="0 0 100 100" width="100" xmlns="http://www.w3.org/2000/svg" xmlns:xlink="http://www.w3.org/1999/xlink"><mask id="a" fill="#fff"><path d="m10 14c0-1.1046.8954-2 2-2h76c1.1046 0 2 .8954 2 2v10h-80z" fill="#fff"/></mask><mask id="b" fill="#fff"><path clip-rule="evenodd" d="m65 50c-.5523 0-1 .4477-1 1v2.5041c-1.468.3778-2.8545.9587-4.1276 1.711l-1.7716-1.7715c-.3905-.3906-1.0237-.3906-1.4142 0l-4.2427 4.2426c-.3905.3905-.3905 1.0237 0 1.4142l1.7715 1.7715c-.7524 1.2733-1.3334 2.6599-1.7113 4.1281h-2.5041c-.5523 0-1 .4477-1 1v6c0 .5523.4477 1 1 1h2.5041c.3778 1.4681.9588 2.8547 1.7112 4.128l-1.7715 1.7715c-.3905.3905-.3905 1.0237 0 1.4142l4.2426 4.2426c.3906.3905 1.0237.3905 1.4143 0l1.7715-1.7715c1.2732.7523 2.6597 1.3333 4.1278 1.7111v2.5041c0 .5523.4477 1 1 1h6c.5523 0 1-.4477 1-1v-2.5041c1.4682-.3779 2.8548-.9589 4.1281-1.7113l1.7717 1.7717c.3905.3905 1.0237.3905 1.4142 0l4.2426-4.2427c.3905-.3905.3905-1.0237 0-1.4142l-1.7717-1.7718c.7523-1.2731 1.3332-2.6596 1.711-4.1276h2.5041c.5523 0 1-.4477 1-1v-6c0-.5523-.4477-1-1-1h-2.5041c-.3778-1.4681-.9588-2.8546-1.7111-4.1278l1.7717-1.7717c.3905-.3905.3905-1.0237 0-1.4142l-4.2426-4.2427c-.3906-.3905-1.0237-.3905-1.4142 0l-1.7717 1.7717c-1.2733-.7524-2.6599-1.3334-4.128-1.7112v-2.5041c0-.5523-.4477-1-1-1zm3 27c4.4183 0 8-3.5817 8-8s-3.5817-8-8-8-8 3.5817-8 8 3.5817 8 8 8z" fill="#fff" fill-rule="evenodd"/></mask><path d="m0 0h100v100h-100z" fill="#fff"/><path clip-rule="evenodd" d="m10 28.5v.4773.0227h1v-.0227-.9773h-.5-.5zm.5 41.5227h-.5v.9773c0 .2712.054.5298.1518.7656l.4618-.1916.4619-.1915c-.0483-.1165-.0755-.2451-.0755-.3825v-.9773zm76.5 2.4773v.5h1c.2712 0 .5298-.054.7656-.1518l-.1915-.4618-.1916-.4619c-.1165.0483-.2451.0755-.3825.0755h-1zm3-43.5227v.0227h-1v-.0227-.4773-.5h.5.5v.5zm-77-.4773v-.5h2v.5.5h-2zm4 0v-.5h2v.5.5h-2zm4 0v-.5h2v.5.5h-2zm4 0v-.5h2v.5.5h-2zm4 0v-.5h2v.5.5h-2zm4 0v-.5h2v.5.5h-2zm4 0v-.5h2v.5.5h-2zm4 0v-.5h2v.5.5h-2zm4 0v-.5h2v.5.5h-2zm4 0v-.5h2v.5.5h-2zm4 0v-.5h2v.5.5h-2zm4 0v-.5h2v.5.5h-2zm4 0v-.5h2v.5.5h-2zm4 0v-.5h2v.5.5h-2zm4 0v-.5h2v.5.5h-2zm4 0v-.5h2v.5.5h-2zm4 0v-.5h2v.5.5h-2zm4 0v-.5h2v.5.5h-2zm4 0v-.5h2v.5.5h-2zm4.5 2.4318h.5v1.9546h-.5-.5v-1.9546zm0 3.9091h.5v1.9546h-.5-.5v-1.9546zm0 3.9091h.5v1.9545h-.5-.5v-1.9545zm0 3.9091h.5v1.9545h-.5-.5v-1.9545zm0 3.9091h.5v1.9545h-.5-.5v-1.9545zm0 3.9091h.5v1.9545h-.5-.5v-1.9545zm0 3.9091h.5v1.9545h-.5-.5v-1.9545zm0 3.9091h.5v1.9545h-.5-.5v-1.9545zm0 3.909h.5v1.9546h-.5-.5v-1.9546zm0 3.9091h.5v1.9546h-.5-.5v-1.9546zm0 3.9091h.5v.9773c0 .2712-.054.5298-.1518.7656l-.4618-.1916-.4619-.1915c.0483-.1165.0755-.2451.0755-.3825v-.9773zm-4.5 2.4773v.5h-2v-.5-.5h2zm-34-.5h2v.5.5h-2v-.5zm-2 .5v.5h-2v-.5-.5h2zm-4 0v.5h-2v-.5-.5h2zm-4 0v.5h-2v-.5-.5h2zm-4 0v.5h-2v-.5-.5h2zm-4 0v.5h-2v-.5-.5h2zm-4 0v.5h-2v-.5-.5h2zm-4 0v.5h-2v-.5-.5h2zm-4 0v.5h-2v-.5-.5h2zm-4 0v.5h-2v-.5-.5h2zm-4 0v.5h-1c-.2712 0-.5298-.054-.7656-.1518l.1916-.4618.1915-.4619c.1165.0483.2451.0755.3825.0755h1zm-2.5-4.4318h-.5v-1.9546h.5.5v1.9546zm0-3.9091h-.5v-1.9546h.5.5v1.9546zm0-3.9091h-.5v-1.9545h.5.5v1.9545zm0-3.9091h-.5v-1.9545h.5.5v1.9545zm0-3.9091h-.5v-1.9545h.5.5v1.9545zm0-3.9091h-.5v-1.9545h.5.5v1.9545zm0-3.9091h-.5v-1.9545h.5.5v1.9545zm0-3.9091h-.5v-1.9545h.5.5v1.9545zm0-3.909h-.5v-1.9546h.5.5v1.9546zm0-3.9091h-.5v-1.9546h.5.5v1.9546z" fill="#000" fill-rule="evenodd"/><path d="m90 24v.8h.8v-.8zm-80 0h-.8v.8h.8zm2-11.2h76v-1.6h-76zm77.2 1.2v10h1.6v-10zm.8 9.2h-80v1.6h80zm-79.2.8v-10h-1.6v10zm77.2-11.2c.6627 0 1.2.5373 1.2 1.2h1.6c0-1.5464-1.2536-2.8-2.8-2.8zm-76-1.6c-1.5464 0-2.8 1.2536-2.8 2.8h1.6c0-.6627.5373-1.2 1.2-1.2z" fill="#000" mask="url(#a)"/><path clip-rule="evenodd" d="m18 18c0 1.1046-.8954 2-2 2s-2-.8954-2-2 .8954-2 2-2 2 .8954 2 2zm7 0c0 1.1046-.8954 2-2 2s-2-.8954-2-2 .8954-2 2-2 2 .8954 2 2zm5 2c1.1046 0 2-.8954 2-2s-.8954-2-2-2-2 .8954-2 2 .8954 2 2 2z" fill="#4fc4f9" fill-rule="evenodd"/><g stroke="#4fc4f9" stroke-width="2"><path d="m23.8 35.96-4.8 5.28 4.8 5.28"/><path d="m38.2 35.96 4.8 5.28-4.8 5.28"/><path d="m33.3996 35-3.84 12.48"/></g><path d="m64 53.5041.4985 1.9368 1.5015-.3864v-1.5504zm-4.1276 1.711-1.4143 1.4143 1.0966 1.0965 1.3351-.7889zm-1.7716-1.7715 1.4142-1.4143zm-5.6569 4.2426 1.4142 1.4142zm0 1.4142-1.4142 1.4142zm1.7715 1.7715 1.7219 1.0175.7889-1.3351-1.0966-1.0966zm-1.7113 4.1281v2h1.5504l.3864-1.5015zm0 8 1.9368-.4985-.3864-1.5015h-1.5504zm1.7112 4.128 1.4142 1.4142 1.0966-1.0966-.7889-1.3351zm-1.7715 1.7715 1.4142 1.4142zm0 1.4142 1.4142-1.4142zm4.2426 4.2426 1.4143-1.4142zm1.4143 0-1.4143-1.4142zm1.7715-1.7715 1.0175-1.7219-1.3351-.7889-1.0966 1.0966zm4.1278 1.7111h2v-1.5504l-1.5015-.3864zm8 0-.4985-1.9368-1.5015.3864v1.5504zm4.1281-1.7113 1.4142-1.4142-1.0966-1.0966-1.3351.7889zm1.7717 1.7717 1.4142-1.4143zm1.4142 0-1.4142-1.4143zm4.2426-4.2427 1.4142 1.4142zm0-1.4142 1.4142-1.4142zm-1.7717-1.7718-1.7219-1.0174-.7889 1.3351 1.0965 1.0966zm1.711-4.1276v-2h-1.5504l-.3864 1.5015zm0-8-1.9368.4985.3864 1.5015h1.5504zm-1.7111-4.1278-1.4142-1.4142-1.0966 1.0966.7889 1.3351zm1.7717-1.7717-1.4142-1.4142zm0-1.4142-1.4142 1.4142zm-4.2426-4.2427-1.4142 1.4142zm-1.4142 0 1.4142 1.4142zm-1.7717 1.7717-1.0175 1.7219 1.3351.7889 1.0966-1.0966zm-4.128-1.7112h-2v1.5504l1.5015.3864zm-6-2.5041c0 .5523-.4477 1-1 1v-4c-1.6569 0-3 1.3431-3 3zm0 2.5041v-2.5041h-4v2.5041zm-5.1102 3.4329c1.1138-.6581 2.3259-1.1659 3.6087-1.4961l-.997-3.8737c-1.6532.4255-3.214 1.0796-4.6466 1.9261zm-4.2032-2.0792 1.7715 1.7716 2.8285-2.8285-1.7716-1.7716zm1.4142 0c-.3905.3905-1.0237.3905-1.4142 0l2.8284-2.8285c-1.1716-1.1715-3.0711-1.1715-4.2426 0zm-4.2427 4.2426 4.2427-4.2426-2.8284-2.8285-4.2427 4.2427zm0-1.4142c.3906.3905.3906 1.0237 0 1.4142l-2.8284-2.8284c-1.1716 1.1716-1.1716 3.0711 0 4.2426zm1.7715 1.7715-1.7715-1.7715-2.8284 2.8284 1.7715 1.7715zm-1.1887 6.0408c.3303-1.283.8381-2.4952 1.4964-3.6091l-3.4437-2.035c-.8466 1.4327-1.5009 2.9937-1.9264 4.6471zm-4.4409 1.5015h2.5041v-4h-2.5041zm1-1c0 .5523-.4477 1-1 1v-4c-1.6569 0-3 1.3431-3 3zm0 6v-6h-4v6zm-1-1c.5523 0 1 .4477 1 1h-4c0 1.6569 1.3431 3 3 3zm2.5041 0h-2.5041v4h2.5041zm3.4331 5.1105c-.6582-1.1139-1.1661-2.3261-1.4963-3.609l-3.8737.997c.4255 1.6533 1.0797 3.2143 1.9263 4.6469zm-2.0792 4.2032 1.7715-1.7715-2.8284-2.8285-1.7715 1.7716zm0-1.4142c.3905.3905.3905 1.0237 0 1.4142l-2.8284-2.8284c-1.1716 1.1715-1.1716 3.071 0 4.2426zm4.2427 4.2426-4.2427-4.2426-2.8284 2.8284 4.2426 4.2426zm-1.4143 0c.3906-.3905 1.0237-.3905 1.4143 0l-2.8285 2.8284c1.1716 1.1716 3.0711 1.1716 4.2427 0zm1.7716-1.7715-1.7716 1.7715 2.8285 2.8284 1.7715-1.7715zm6.0405 1.1885c-1.2829-.3302-2.495-.838-3.6088-1.4962l-2.0349 3.4437c1.4326.8465 2.9935 1.5007 4.6467 1.9262zm1.5015 4.4409v-2.5041h-4v2.5041zm-1-1c.5523 0 1 .4477 1 1h-4c0 1.6569 1.3431 3 3 3zm6 0h-6v4h6zm-1 1c0-.5523.4477-1 1-1v4c1.6569 0 3-1.3431 3-3zm0-2.5041v2.5041h4v-2.5041zm5.1106-3.4332c-1.1139.6583-2.3261 1.1661-3.6091 1.4964l.997 3.8737c1.6534-.4255 3.2144-1.0798 4.6471-1.9264zm4.2034 2.0793-1.7717-1.7716-2.8284 2.8284 1.7717 1.7717zm-1.4142 0c.3905-.3905 1.0237-.3905 1.4142 0l-2.8285 2.8285c1.1716 1.1715 3.0711 1.1715 4.2427 0zm4.2426-4.2426-4.2426 4.2426 2.8284 2.8285 4.2426-4.2427zm0 1.4142c-.3905-.3905-.3905-1.0237 0-1.4142l2.8284 2.8284c1.1716-1.1715 1.1716-3.071 0-4.2426zm-1.7718-1.7717 1.7718 1.7717 2.8284-2.8284-1.7717-1.7718zm1.1885-6.0404c-.3302 1.2828-.838 2.4949-1.4961 3.6087l3.4437 2.0349c.8465-1.4326 1.5006-2.9934 1.9261-4.6466zm4.4409-1.5015h-2.5041v4h2.5041zm-1 1c0-.5523.4477-1 1-1v4c1.6569 0 3-1.3431 3-3zm0-6v6h4v-6zm1 1c-.5523 0-1-.4477-1-1h4c0-1.6569-1.3431-3-3-3zm-2.5041 0h2.5041v-4h-2.5041zm-3.433-5.1103c.6582 1.1138 1.166 2.3259 1.4962 3.6088l3.8737-.997c-.4255-1.6532-1.0797-3.2142-1.9262-4.6467zm2.0794-4.2034-1.7717 1.7717 2.8284 2.8284 1.7717-1.7717zm0 1.4142c-.3905-.3905-.3905-1.0237 0-1.4142l2.8284 2.8284c1.1716-1.1716 1.1716-3.0711 0-4.2427zm-4.2426-4.2427 4.2426 4.2427 2.8284-2.8284-4.2426-4.2427zm1.4142 0c-.3906.3906-1.0237.3906-1.4142 0l2.8284-2.8284c-1.1716-1.1716-3.0711-1.1716-4.2427 0zm-1.7717 1.7717 1.7717-1.7717-2.8285-2.8284-1.7717 1.7717zm-6.0407-1.1886c1.2829.3302 2.4951.8381 3.609 1.4963l2.0349-3.4437c-1.4326-.8466-2.9936-1.5008-4.6469-1.9263zm-1.5015-4.4409v2.5041h4v-2.5041zm1 1c-.5523 0-1-.4477-1-1h4c0-1.6569-1.3431-3-3-3zm-6 0h6v-4h-6zm9 17c0 3.3137-2.6863 6-6 6v4c5.5228 0 10-4.4772 10-10zm-6-6c3.3137 0 6 2.6863 6 6h4c0-5.5228-4.4772-10-10-10zm-6 6c0-3.3137 2.6863-6 6-6v-4c-5.5228 0-10 4.4772-10 10zm6 6c-3.3137 0-6-2.6863-6-6h-4c0 5.5228 4.4772 10 10 10z" fill="#4fc4f9" mask="url(#b)"/></svg>

<svg width="100" height="100" viewBox="0 0 100 100" fill="none" xmlns="http://www.w3.org/2000/svg">
<rect width="100" height="100" fill="white"/>
<path fill-rule="evenodd" clip-rule="evenodd" d="M10 28.5V28.9773V29H11V28.9773H11V28H11H10.5H10V28.5ZM10.5 70.0227H10V71C10 71.2712 10.054 71.5298 10.1518 71.7656L10.6136 71.574L11.0755 71.3825C11.0272 71.266 11 71.1374 11 71V70.0227H10.5ZM87 72.5V73H88C88.2712 73 88.5298 72.946 88.7656 72.8482L88.5741 72.3864L88.3825 71.9245C88.266 71.9728 88.1374 72 88 72H87V72.5ZM90 28.9773V29H89V28.9773V28.5V28H89.5H90V28.5V28.9773ZM13 28.5V28H15V28.5V29H13V28.5ZM17 28.5V28H19V28.5V29H17V28.5ZM21 28.5V28H23V28.5V29H21V28.5ZM25 28.5V28H27V28.5V29H25V28.5ZM29 28.5V28H31V28.5V29H29V28.5ZM33 28.5V28H35V28.5V29H33V28.5ZM37 28.5V28H39V28.5V29H37V28.5ZM41 28.5V28H43V28.5V29H41V28.5ZM45 28.5V28H47V28.5V29H45V28.5ZM49 28.5V28H51V28.5V29H49V28.5ZM53 28.5V28H55V28.5V29H53V28.5ZM57 28.5V28H59V28.5V29H57V28.5ZM61 28.5V28H63V28.5V29H61V28.5ZM65 28.5V28H67V28.5V29H65V28.5ZM69 28.5V28H71V28.5V29H69V28.5ZM73 28.5V28H75V28.5V29H73V28.5ZM77 28.5V28H79V28.5V29H77V28.5ZM81 28.5V28H83V28.5V29H81V28.5ZM85 28.5V28H87V28.5V29H85V28.5ZM89.5 30.9318H90V32.8864H89.5H89V30.9318H89.5ZM89.5 34.8409H90V36.7955H89.5H89V34.8409H89.5ZM89.5 38.75H90V40.7045H89.5H89V38.75H89.5ZM89.5 42.6591H90V44.6136H89.5H89V42.6591H89.5ZM89.5 46.5682H90V48.5227H89.5H89V46.5682H89.5ZM89.5 50.4773H90V52.4318H89.5H89V50.4773H89.5ZM89.5 54.3864H90V56.3409H89.5H89V54.3864H89.5ZM89.5 58.2955H90V60.25H89.5H89V58.2955H89.5ZM89.5 62.2045H90V64.1591H89.5H89V62.2045H89.5ZM89.5 66.1136H90V68.0682H89.5H89V66.1136H89.5ZM89.5 70.0227H90V71C90 71.2712 89.946 71.5298 89.8482 71.7656L89.3864 71.574L88.9245 71.3825C88.9728 71.266 89 71.1374 89 71V70.0227H89.5ZM85 72.5V73H83V72.5V72H85V72.5ZM51 72H53V72.5V73H51V72.5V72ZM49 72.5V73H47V72.5V72H49V72.5ZM45 72.5V73H43V72.5V72H45V72.5ZM41 72.5V73H39V72.5V72H41V72.5ZM37 72.5V73H35V72.5V72H37V72.5ZM33 72.5V73H31V72.5V72H33V72.5ZM29 72.5V73H27V72.5V72H29V72.5ZM25 72.5V73H23V72.5V72H25V72.5ZM21 72.5V73H19V72.5V72H21V72.5ZM17 72.5V73H15V72.5V72H17V72.5ZM13 72.5V73H12C11.7288 73 11.4702 72.946 11.2344 72.8482L11.426 72.3864L11.6175 71.9245C11.734 71.9728 11.8626 72 12 72H13V72.5ZM10.5 68.0682H10V66.1136H10.5H11V68.0682H10.5ZM10.5 64.1591H10V62.2045H10.5H11V64.1591H10.5ZM10.5 60.25H10V58.2955H10.5H11V60.25H10.5ZM10.5 56.3409H10V54.3864H10.5H11V56.3409H10.5ZM10.5 52.4318H10V50.4773H10.5H11V52.4318H10.5ZM10.5 48.5227H10V46.5682H10.5H11V48.5227H10.5ZM10.5 44.6136H10V42.6591H10.5H11V44.6136H10.5ZM10.5 40.7045H10V38.75H10.5H11V40.7045H10.5ZM10.5 36.7955H10V34.8409H10.5H11V36.7955H10.5ZM10.5 32.8864H10V30.9318H10.5H11V32.8864H10.5Z" fill="black"/>
<mask id="path-2-inside-1_629_1894" fill="white">
<path d="M10 14C10 12.8954 10.8954 12 12 12H88C89.1046 12 90 12.8954 90 14V24H10V14Z"/>
</mask>
<path d="M90 24V24.8H90.8V24H90ZM10 24H9.2V24.8H10V24ZM12 12.8H88V11.2H12V12.8ZM89.2 14V24H90.8V14H89.2ZM90 23.2H10V24.8H90V23.2ZM10.8 24V14H9.2V24H10.8ZM88 12.8C88.6627 12.8 89.2 13.3373 89.2 14H90.8C90.8 12.4536 89.5464 11.2 88 11.2V12.8ZM12 11.2C10.4536 11.2 9.2 12.4536 9.2 14H10.8C10.8 13.3373 11.3373 12.8 12 12.8V11.2Z" fill="black" mask="url(#path-2-inside-1_629_1894)"/>
<path fill-rule="evenodd" clip-rule="evenodd" d="M18 18C18 19.1046 17.1046 20 16 20C14.8954 20 14 19.1046 14 18C14 16.8954 14.8954 16 16 16C17.1046 16 18 16.8954 18 18ZM25 18C25 19.1046 24.1046 20 23 20C21.8954 20 21 19.1046 21 18C21 16.8954 21.8954 16 23 16C24.1046 16 25 16.8954 25 18ZM30 20C31.1046 20 32 19.1046 32 18C32 16.8954 31.1046 16 30 16C28.8954 16 28 16.8954 28 18C28 19.1046 28.8954 20 30 20Z" fill="#4FC4F9"/>
<path d="M23.8 35.96L19 41.24L23.8 46.52" stroke="#4FC4F9" stroke-width="2"/>
<path d="M38.2 35.96L43 41.24L38.2 46.52" stroke="#4FC4F9" stroke-width="2"/>
<path d="M33.3996 35L29.5596 47.48" stroke="#4FC4F9" stroke-width="2"/>
<mask id="path-8-inside-2_629_1894" fill="white">
<path fill-rule="evenodd" clip-rule="evenodd" d="M65 50C64.4477 50 64 50.4477 64 51V53.5041C62.532 53.8819 61.1455 54.4628 59.8724 55.2151L58.1008 53.4436C57.7103 53.053 57.0771 53.053 56.6866 53.4436L52.4439 57.6862C52.0534 58.0767 52.0534 58.7099 52.4439 59.1004L54.2154 60.8719C53.463 62.1452 52.882 63.5318 52.5041 65H50C49.4477 65 49 65.4477 49 66V72C49 72.5523 49.4477 73 50 73H52.5041C52.8819 74.4681 53.4629 75.8547 54.2153 77.128L52.4438 78.8995C52.0533 79.29 52.0533 79.9232 52.4438 80.3137L56.6864 84.5563C57.077 84.9468 57.7101 84.9468 58.1007 84.5563L59.8722 82.7848C61.1454 83.5371 62.5319 84.1181 64 84.4959V87C64 87.5523 64.4477 88 65 88H71C71.5523 88 72 87.5523 72 87V84.4959C73.4682 84.118 74.8548 83.537 76.1281 82.7846L77.8998 84.5563C78.2903 84.9468 78.9235 84.9468 79.314 84.5563L83.5566 80.3136C83.9471 79.9231 83.9471 79.2899 83.5566 78.8994L81.7849 77.1276C82.5372 75.8545 83.1181 74.468 83.4959 73H86C86.5523 73 87 72.5523 87 72V66C87 65.4477 86.5523 65 86 65H83.4959C83.1181 63.5319 82.5371 62.1454 81.7848 60.8722L83.5565 59.1005C83.947 58.71 83.947 58.0768 83.5565 57.6863L79.3139 53.4436C78.9233 53.0531 78.2902 53.0531 77.8997 53.4436L76.128 55.2153C74.8547 54.4629 73.4681 53.8819 72 53.5041V51C72 50.4477 71.5523 50 71 50H65ZM68 77C72.4183 77 76 73.4183 76 69C76 64.5817 72.4183 61 68 61C63.5817 61 60 64.5817 60 69C60 73.4183 63.5817 77 68 77Z"/>
</mask>
<path d="M64 53.5041L64.4985 55.4409L66 55.0545V53.5041H64ZM59.8724 55.2151L58.4581 56.6294L59.5547 57.7259L60.8898 56.937L59.8724 55.2151ZM58.1008 53.4436L59.515 52.0293L59.515 52.0293L58.1008 53.4436ZM52.4439 57.6862L53.8581 59.1004L53.8581 59.1004L52.4439 57.6862ZM52.4439 59.1004L51.0297 60.5146L51.0297 60.5146L52.4439 59.1004ZM54.2154 60.8719L55.9373 61.8894L56.7262 60.5543L55.6296 59.4577L54.2154 60.8719ZM52.5041 65V67H54.0545L54.4409 65.4985L52.5041 65ZM52.5041 73L54.4409 72.5015L54.0545 71H52.5041V73ZM54.2153 77.128L55.6295 78.5422L56.7261 77.4456L55.9372 76.1105L54.2153 77.128ZM52.4438 78.8995L53.858 80.3137L53.858 80.3137L52.4438 78.8995ZM52.4438 80.3137L53.858 78.8995L53.858 78.8995L52.4438 80.3137ZM56.6864 84.5563L58.1007 83.1421L58.1007 83.1421L56.6864 84.5563ZM58.1007 84.5563L56.6864 83.1421L56.6864 83.1421L58.1007 84.5563ZM59.8722 82.7848L60.8897 81.0629L59.5546 80.274L58.458 81.3706L59.8722 82.7848ZM64 84.4959H66V82.9455L64.4985 82.5591L64 84.4959ZM72 84.4959L71.5015 82.5591L70 82.9455V84.4959H72ZM76.1281 82.7846L77.5423 81.3704L76.4457 80.2738L75.1106 81.0627L76.1281 82.7846ZM77.8998 84.5563L79.314 83.142H79.314L77.8998 84.5563ZM79.314 84.5563L77.8998 83.142L77.8998 83.142L79.314 84.5563ZM83.5566 80.3136L84.9708 81.7278L84.9708 81.7278L83.5566 80.3136ZM83.5566 78.8994L84.9708 77.4852L84.9708 77.4852L83.5566 78.8994ZM81.7849 77.1276L80.063 76.1102L79.2741 77.4453L80.3706 78.5419L81.7849 77.1276ZM83.4959 73V71H81.9455L81.5591 72.5015L83.4959 73ZM83.4959 65L81.5591 65.4985L81.9455 67H83.4959V65ZM81.7848 60.8722L80.3706 59.458L79.274 60.5546L80.0629 61.8897L81.7848 60.8722ZM83.5565 59.1005L82.1423 57.6863L82.1423 57.6863L83.5565 59.1005ZM83.5565 57.6863L82.1423 59.1005L82.1423 59.1005L83.5565 57.6863ZM79.3139 53.4436L77.8997 54.8578L79.3139 53.4436ZM77.8997 53.4436L79.3139 54.8578L77.8997 53.4436ZM76.128 55.2153L75.1105 56.9372L76.4456 57.7261L77.5422 56.6295L76.128 55.2153ZM72 53.5041H70V55.0545L71.5015 55.4409L72 53.5041ZM66 51C66 51.5523 65.5523 52 65 52V48C63.3431 48 62 49.3431 62 51H66ZM66 53.5041V51H62V53.5041H66ZM60.8898 56.937C62.0036 56.2789 63.2157 55.7711 64.4985 55.4409L63.5015 51.5672C61.8483 51.9927 60.2875 52.6468 58.8549 53.4933L60.8898 56.937ZM56.6866 54.8578L58.4581 56.6294L61.2866 53.8009L59.515 52.0293L56.6866 54.8578ZM58.1008 54.8578C57.7103 55.2483 57.0771 55.2483 56.6866 54.8578L59.515 52.0293C58.3434 50.8578 56.4439 50.8578 55.2724 52.0293L58.1008 54.8578ZM53.8581 59.1004L58.1008 54.8578L55.2724 52.0293L51.0297 56.272L53.8581 59.1004ZM53.8581 57.6862C54.2487 58.0767 54.2487 58.7099 53.8581 59.1004L51.0297 56.272C49.8581 57.4436 49.8581 59.3431 51.0297 60.5146L53.8581 57.6862ZM55.6296 59.4577L53.8581 57.6862L51.0297 60.5146L52.8012 62.2861L55.6296 59.4577ZM54.4409 65.4985C54.7712 64.2155 55.279 63.0033 55.9373 61.8894L52.4936 59.8544C51.647 61.2871 50.9927 62.8481 50.5672 64.5015L54.4409 65.4985ZM50 67H52.5041V63H50V67ZM51 66C51 66.5523 50.5523 67 50 67V63C48.3431 63 47 64.3431 47 66H51ZM51 72V66H47V72H51ZM50 71C50.5523 71 51 71.4477 51 72H47C47 73.6569 48.3431 75 50 75V71ZM52.5041 71H50V75H52.5041V71ZM55.9372 76.1105C55.279 74.9966 54.7711 73.7844 54.4409 72.5015L50.5672 73.4985C50.9927 75.1518 51.6469 76.7128 52.4935 78.1454L55.9372 76.1105ZM53.858 80.3137L55.6295 78.5422L52.8011 75.7137L51.0296 77.4853L53.858 80.3137ZM53.858 78.8995C54.2485 79.29 54.2485 79.9232 53.858 80.3137L51.0296 77.4853C49.858 78.6568 49.858 80.5563 51.0296 81.7279L53.858 78.8995ZM58.1007 83.1421L53.858 78.8995L51.0296 81.7279L55.2722 85.9705L58.1007 83.1421ZM56.6864 83.1421C57.077 82.7516 57.7101 82.7516 58.1007 83.1421L55.2722 85.9705C56.4438 87.1421 58.3433 87.1421 59.5149 85.9705L56.6864 83.1421ZM58.458 81.3706L56.6864 83.1421L59.5149 85.9705L61.2864 84.199L58.458 81.3706ZM64.4985 82.5591C63.2156 82.2289 62.0035 81.7211 60.8897 81.0629L58.8548 84.5066C60.2874 85.3531 61.8483 86.0073 63.5015 86.4328L64.4985 82.5591ZM66 87V84.4959H62V87H66ZM65 86C65.5523 86 66 86.4477 66 87H62C62 88.6569 63.3431 90 65 90V86ZM71 86H65V90H71V86ZM70 87C70 86.4477 70.4477 86 71 86V90C72.6569 90 74 88.6569 74 87H70ZM70 84.4959V87H74V84.4959H70ZM75.1106 81.0627C73.9967 81.721 72.7845 82.2288 71.5015 82.5591L72.4985 86.4328C74.1519 86.0073 75.7129 85.353 77.1456 84.5064L75.1106 81.0627ZM79.314 83.142L77.5423 81.3704L74.7139 84.1988L76.4856 85.9705L79.314 83.142ZM77.8998 83.142C78.2903 82.7515 78.9235 82.7515 79.314 83.142L76.4855 85.9705C77.6571 87.142 79.5566 87.142 80.7282 85.9705L77.8998 83.142ZM82.1424 78.8994L77.8998 83.142L80.7282 85.9705L84.9708 81.7278L82.1424 78.8994ZM82.1424 80.3136C81.7519 79.9231 81.7519 79.2899 82.1424 78.8994L84.9708 81.7278C86.1424 80.5563 86.1424 78.6568 84.9708 77.4852L82.1424 80.3136ZM80.3706 78.5419L82.1424 80.3136L84.9708 77.4852L83.1991 75.7134L80.3706 78.5419ZM81.5591 72.5015C81.2289 73.7843 80.7211 74.9964 80.063 76.1102L83.5067 78.1451C84.3532 76.7125 85.0073 75.1517 85.4328 73.4985L81.5591 72.5015ZM86 71H83.4959V75H86V71ZM85 72C85 71.4477 85.4477 71 86 71V75C87.6569 75 89 73.6569 89 72H85ZM85 66V72H89V66H85ZM86 67C85.4477 67 85 66.5523 85 66H89C89 64.3431 87.6569 63 86 63V67ZM83.4959 67H86V63H83.4959V67ZM80.0629 61.8897C80.7211 63.0035 81.2289 64.2156 81.5591 65.4985L85.4328 64.5015C85.0073 62.8483 84.3531 61.2873 83.5066 59.8548L80.0629 61.8897ZM82.1423 57.6863L80.3706 59.458L83.199 62.2864L84.9707 60.5147L82.1423 57.6863ZM82.1423 59.1005C81.7518 58.71 81.7518 58.0768 82.1423 57.6863L84.9707 60.5147C86.1423 59.3431 86.1423 57.4436 84.9707 56.272L82.1423 59.1005ZM77.8997 54.8578L82.1423 59.1005L84.9707 56.2721L80.7281 52.0294L77.8997 54.8578ZM79.3139 54.8578C78.9233 55.2484 78.2902 55.2484 77.8997 54.8578L80.7281 52.0294C79.5565 50.8578 77.657 50.8578 76.4854 52.0294L79.3139 54.8578ZM77.5422 56.6295L79.3139 54.8578L76.4854 52.0294L74.7137 53.8011L77.5422 56.6295ZM71.5015 55.4409C72.7844 55.7711 73.9966 56.279 75.1105 56.9372L77.1454 53.4935C75.7128 52.6469 74.1518 51.9927 72.4985 51.5672L71.5015 55.4409ZM70 51V53.5041H74V51H70ZM71 52C70.4477 52 70 51.5523 70 51H74C74 49.3431 72.6569 48 71 48V52ZM65 52H71V48H65V52ZM74 69C74 72.3137 71.3137 75 68 75V79C73.5228 79 78 74.5228 78 69H74ZM68 63C71.3137 63 74 65.6863 74 69H78C78 63.4772 73.5228 59 68 59V63ZM62 69C62 65.6863 64.6863 63 68 63V59C62.4772 59 58 63.4772 58 69H62ZM68 75C64.6863 75 62 72.3137 62 69H58C58 74.5228 62.4772 79 68 79V75Z" fill="#4FC4F9" mask="url(#path-8-inside-2_629_1894)"/>
</svg>
